images/fm-icon.svg

<svg xmlns="http://www.w3.org/2000/svg" xmlns:xlink="http://www.w3.org/1999/xlink" width="102" zoomAndPan="magnify" viewBox="0 0 76.5 76.499999" height="102" preserveAspectRatio="xMidYMid meet" version="1.0"><path fill="#d5ba2b" d="M 73.328125 7.332031 L 65.992188 7.332031 C 64.644531 7.332031 63.550781 8.429688 63.550781 9.777344 L 63.550781 19.554688 L 60.078125 19.554688 C 58.761719 16.554688 56.277344 14.191406 53.207031 13.023438 C 53.570312 11.984375 53.773438 10.886719 53.773438 9.777344 C 53.773438 4.386719 49.386719 0 43.996094 0 C 41.742188 0 39.613281 0.761719 37.886719 2.152344 C 36.15625 0.761719 34.03125 0 31.773438 0 C 26.382812 0 21.996094 4.386719 21.996094 9.777344 C 21.996094 10.886719 22.199219 11.984375 22.566406 13.023438 C 19.492188 14.191406 17.007812 16.554688 15.691406 19.554688 L 12.222656 19.554688 L 12.222656 9.777344 C 12.222656 8.429688 11.125 7.332031 9.777344 7.332031 L 2.445312 7.332031 C 1.097656 7.332031 0 8.429688 0 9.777344 L 0 39.105469 C 0 40.457031 1.097656 41.550781 2.445312 41.550781 L 9.777344 41.550781 C 11.125 41.550781 12.222656 40.457031 12.222656 39.105469 L 12.222656 29.332031 L 15.691406 29.332031 C 17.007812 32.328125 19.492188 34.691406 22.566406 35.859375 C 22.199219 36.898438 21.996094 37.996094 21.996094 39.105469 C 21.996094 39.953125 22.117188 40.769531 22.320312 41.550781 L 19.554688 41.550781 C 18.207031 41.550781 17.109375 42.648438 17.109375 43.996094 L 14.664062 43.996094 C 13.316406 43.996094 12.222656 45.09375 12.222656 46.441406 L 12.222656 70.882812 C 12.222656 72.230469 13.316406 73.328125 14.664062 73.328125 L 32.492188 73.328125 L 32.847656 73.683594 C 34.175781 75.011719 36.011719 75.769531 37.886719 75.769531 C 39.761719 75.769531 41.59375 75.011719 42.921875 73.683594 L 43.28125 73.328125 L 61.105469 73.328125 C 62.453125 73.328125 63.550781 72.230469 63.550781 70.882812 L 63.550781 46.441406 C 63.550781 45.09375 62.453125 43.996094 61.105469 43.996094 L 58.660156 43.996094 C 58.660156 42.648438 57.566406 41.550781 56.214844 41.550781 L 53.449219 41.550781 C 53.652344 40.769531 53.773438 39.953125 53.773438 39.105469 C 53.773438 38 53.570312 36.898438 53.207031 35.859375 C 56.277344 34.691406 58.761719 32.328125 60.078125 29.332031 L 63.550781 29.332031 L 63.550781 39.105469 C 63.550781 40.457031 64.644531 41.550781 65.992188 41.550781 L 73.328125 41.550781 C 74.675781 41.550781 75.769531 40.457031 75.769531 39.105469 L 75.769531 9.777344 C 75.769531 8.429688 74.675781 7.332031 73.328125 7.332031 Z M 2.445312 39.105469 L 2.445312 9.777344 L 9.777344 9.777344 L 9.777344 39.105469 Z M 12.222656 26.886719 L 12.222656 21.996094 L 14.910156 21.996094 C 14.75 22.789062 14.664062 23.605469 14.664062 24.441406 C 14.664062 25.277344 14.75 26.097656 14.910156 26.886719 Z M 26.886719 36.664062 L 29.332031 36.664062 L 29.332031 34.21875 L 26.886719 34.21875 C 21.496094 34.21875 17.109375 29.832031 17.109375 24.441406 C 17.109375 19.050781 21.496094 14.664062 26.886719 14.664062 L 27.097656 14.664062 C 29 14.664062 30.789062 15.40625 32.132812 16.75 L 33.859375 15.023438 C 33.230469 14.394531 32.523438 13.867188 31.769531 13.441406 C 32.523438 13.019531 33.230469 12.492188 33.859375 11.863281 L 32.132812 10.136719 C 30.789062 11.480469 29 12.222656 27.097656 12.222656 L 26.886719 12.222656 C 26.214844 12.222656 25.5625 12.289062 24.921875 12.394531 C 24.601562 11.5625 24.441406 10.6875 24.441406 9.777344 C 24.441406 5.734375 27.730469 2.445312 31.773438 2.445312 C 33.601562 2.445312 35.316406 3.113281 36.664062 4.324219 L 36.664062 44.5625 C 35.316406 45.769531 33.601562 46.441406 31.773438 46.441406 C 27.730469 46.441406 24.441406 43.152344 24.441406 39.105469 C 24.441406 38.210938 24.605469 37.320312 24.921875 36.492188 C 25.5625 36.59375 26.214844 36.664062 26.886719 36.664062 Z M 19.554688 43.996094 L 23.320312 43.996094 C 25.015625 46.914062 28.164062 48.882812 31.773438 48.882812 C 33.523438 48.882812 35.191406 48.421875 36.664062 47.566406 L 36.664062 67.21875 C 35.25 66.425781 33.652344 65.992188 31.984375 65.992188 L 19.554688 65.992188 Z M 58.660156 65.992188 L 58.660156 46.441406 L 61.105469 46.441406 L 61.105469 70.882812 L 42.269531 70.882812 L 41.195312 71.957031 C 40.320312 72.828125 39.117188 73.328125 37.886719 73.328125 C 36.652344 73.328125 35.449219 72.828125 34.578125 71.957031 L 33.503906 70.882812 L 14.664062 70.882812 L 14.664062 46.441406 L 17.109375 46.441406 L 17.109375 65.992188 C 17.109375 67.339844 18.207031 68.4375 19.554688 68.4375 L 31.984375 68.4375 C 33.886719 68.4375 35.675781 69.179688 37.019531 70.523438 L 37.886719 71.390625 L 38.75 70.523438 C 40.09375 69.179688 41.882812 68.4375 43.785156 68.4375 L 56.214844 68.4375 C 57.566406 68.4375 58.660156 67.339844 58.660156 65.992188 Z M 56.214844 43.996094 L 56.214844 65.992188 L 43.785156 65.992188 C 42.117188 65.992188 40.519531 66.425781 39.105469 67.222656 L 39.105469 47.566406 C 40.578125 48.421875 42.246094 48.882812 43.996094 48.882812 C 47.605469 48.882812 50.757812 46.914062 52.449219 43.996094 Z M 48.882812 34.21875 L 46.441406 34.21875 L 46.441406 36.664062 L 48.882812 36.664062 C 49.554688 36.664062 50.207031 36.59375 50.847656 36.492188 C 51.167969 37.320312 51.328125 38.195312 51.328125 39.105469 C 51.328125 43.152344 48.039062 46.441406 43.996094 46.441406 C 42.167969 46.441406 40.453125 45.769531 39.105469 44.5625 L 39.105469 4.3125 C 40.453125 3.105469 42.171875 2.445312 43.996094 2.445312 C 48.039062 2.445312 51.328125 5.734375 51.328125 9.777344 C 51.328125 10.6875 51.167969 11.5625 50.847656 12.394531 C 50.207031 12.289062 49.554688 12.222656 48.882812 12.222656 L 48.675781 12.222656 C 46.769531 12.222656 44.980469 11.480469 43.636719 10.136719 L 41.910156 11.863281 C 42.539062 12.492188 43.246094 13.019531 44 13.441406 C 43.246094 13.867188 42.539062 14.394531 41.910156 15.023438 L 43.636719 16.75 C 44.984375 15.40625 46.769531 14.664062 48.675781 14.664062 L 48.882812 14.664062 C 54.273438 14.664062 58.660156 19.050781 58.660156 24.441406 C 58.660156 29.832031 54.273438 34.21875 48.882812 34.21875 Z M 60.859375 26.886719 C 61.019531 26.097656 61.105469 25.277344 61.105469 24.441406 C 61.105469 23.605469 61.019531 22.789062 60.859375 21.996094 L 63.550781 21.996094 L 63.550781 26.886719 Z M 73.328125 39.105469 L 65.992188 39.105469 L 65.992188 9.777344 L 73.328125 9.777344 Z M 73.328125 39.105469 " fill-opacity="1" fill-rule="nonzero"/><path fill="#d5ba2b" d="M 29.332031 30.550781 C 29.332031 27.855469 31.523438 25.664062 34.21875 25.664062 L 34.21875 23.21875 C 32.90625 23.21875 31.675781 23.570312 30.609375 24.179688 C 29.277344 22.105469 26.96875 20.777344 24.441406 20.777344 L 24.441406 23.21875 C 26.222656 23.21875 27.859375 24.203125 28.710938 25.726562 C 27.578125 27.019531 26.886719 28.703125 26.886719 30.550781 L 26.886719 31.773438 L 29.332031 31.773438 Z M 29.332031 30.550781 " fill-opacity="1" fill-rule="nonzero"/><path fill="#d5ba2b" d="M 45.160156 24.179688 C 44.09375 23.570312 42.863281 23.21875 41.550781 23.21875 L 41.550781 25.664062 C 44.246094 25.664062 46.441406 27.855469 46.441406 30.550781 L 46.441406 31.773438 L 48.882812 31.773438 L 48.882812 30.550781 C 48.882812 28.703125 48.191406 27.019531 47.058594 25.726562 C 47.914062 24.203125 49.546875 23.21875 51.328125 23.21875 L 51.328125 20.777344 C 48.804688 20.777344 46.492188 22.105469 45.160156 24.179688 Z M 45.160156 24.179688 " fill-opacity="1" fill-rule="nonzero"/><path fill="#d5ba2b" d="M 21.996094 61.105469 L 34.21875 61.105469 L 34.21875 63.550781 L 21.996094 63.550781 Z M 21.996094 61.105469 " fill-opacity="1" fill-rule="nonzero"/><path fill="#d5ba2b" d="M 21.996094 56.214844 L 34.21875 56.214844 L 34.21875 58.660156 L 21.996094 58.660156 Z M 21.996094 56.214844 " fill-opacity="1" fill-rule="nonzero"/><path fill="#d5ba2b" d="M 21.996094 51.328125 L 34.21875 51.328125 L 34.21875 53.773438 L 21.996094 53.773438 Z M 21.996094 51.328125 " fill-opacity="1" fill-rule="nonzero"/><path fill="#d5ba2b" d="M 41.550781 51.328125 L 43.996094 51.328125 L 43.996094 53.773438 L 41.550781 53.773438 Z M 41.550781 51.328125 " fill-opacity="1" fill-rule="nonzero"/><path fill="#d5ba2b" d="M 46.441406 51.328125 L 53.773438 51.328125 L 53.773438 53.773438 L 46.441406 53.773438 Z M 46.441406 51.328125 " fill-opacity="1" fill-rule="nonzero"/><path fill="#d5ba2b" d="M 41.550781 56.214844 L 53.773438 56.214844 L 53.773438 58.660156 L 41.550781 58.660156 Z M 41.550781 56.214844 " fill-opacity="1" fill-rule="nonzero"/><path fill="#d5ba2b" d="M 41.550781 61.105469 L 53.773438 61.105469 L 53.773438 63.550781 L 41.550781 63.550781 Z M 41.550781 61.105469 " fill-opacity="1" fill-rule="nonzero"/><path fill="#d5ba2b" d="M 73.328125 7.332031 L 65.992188 7.332031 C 64.644531 7.332031 63.550781 8.429688 63.550781 9.777344 L 63.550781 19.554688 L 60.078125 19.554688 C 58.761719 16.554688 56.277344 14.191406 53.207031 13.023438 C 53.570312 11.984375 53.773438 10.886719 53.773438 9.777344 C 53.773438 4.386719 49.386719 0 43.996094 0 C 41.742188 0 39.613281 0.761719 37.886719 2.152344 C 36.15625 0.761719 34.03125 0 31.773438 0 C 26.382812 0 21.996094 4.386719 21.996094 9.777344 C 21.996094 10.886719 22.199219 11.984375 22.566406 13.023438 C 19.492188 14.191406 17.007812 16.554688 15.691406 19.554688 L 12.222656 19.554688 L 12.222656 9.777344 C 12.222656 8.429688 11.125 7.332031 9.777344 7.332031 L 2.445312 7.332031 C 1.097656 7.332031 0 8.429688 0 9.777344 L 0 39.105469 C 0 40.457031 1.097656 41.550781 2.445312 41.550781 L 9.777344 41.550781 C 11.125 41.550781 12.222656 40.457031 12.222656 39.105469 L 12.222656 29.332031 L 15.691406 29.332031 C 17.007812 32.328125 19.492188 34.691406 22.566406 35.859375 C 22.199219 36.898438 21.996094 37.996094 21.996094 39.105469 C 21.996094 39.953125 22.117188 40.769531 22.320312 41.550781 L 19.554688 41.550781 C 18.207031 41.550781 17.109375 42.648438 17.109375 43.996094 L 14.664062 43.996094 C 13.316406 43.996094 12.222656 45.09375 12.222656 46.441406 L 12.222656 70.882812 C 12.222656 72.230469 13.316406 73.328125 14.664062 73.328125 L 32.492188 73.328125 L 32.847656 73.683594 C 34.175781 75.011719 36.011719 75.769531 37.886719 75.769531 C 39.761719 75.769531 41.59375 75.011719 42.921875 73.683594 L 43.28125 73.328125 L 61.105469 73.328125 C 62.453125 73.328125 63.550781 72.230469 63.550781 70.882812 L 63.550781 46.441406 C 63.550781 45.09375 62.453125 43.996094 61.105469 43.996094 L 58.660156 43.996094 C 58.660156 42.648438 57.566406 41.550781 56.214844 41.550781 L 53.449219 41.550781 C 53.652344 40.769531 53.773438 39.953125 53.773438 39.105469 C 53.773438 38 53.570312 36.898438 53.207031 35.859375 C 56.277344 34.691406 58.761719 32.328125 60.078125 29.332031 L 63.550781 29.332031 L 63.550781 39.105469 C 63.550781 40.457031 64.644531 41.550781 65.992188 41.550781 L 73.328125 41.550781 C 74.675781 41.550781 75.769531 40.457031 75.769531 39.105469 L 75.769531 9.777344 C 75.769531 8.429688 74.675781 7.332031 73.328125 7.332031 Z M 2.445312 39.105469 L 2.445312 9.777344 L 9.777344 9.777344 L 9.777344 39.105469 Z M 12.222656 26.886719 L 12.222656 21.996094 L 14.910156 21.996094 C 14.75 22.789062 14.664062 23.605469 14.664062 24.441406 C 14.664062 25.277344 14.75 26.097656 14.910156 26.886719 Z M 26.886719 36.664062 L 29.332031 36.664062 L 29.332031 34.21875 L 26.886719 34.21875 C 21.496094 34.21875 17.109375 29.832031 17.109375 24.441406 C 17.109375 19.050781 21.496094 14.664062 26.886719 14.664062 L 27.097656 14.664062 C 29 14.664062 30.789062 15.40625 32.132812 16.75 L 33.859375 15.023438 C 33.230469 14.394531 32.523438 13.867188 31.769531 13.441406 C 32.523438 13.019531 33.230469 12.492188 33.859375 11.863281 L 32.132812 10.136719 C 30.789062 11.480469 29 12.222656 27.097656 12.222656 L 26.886719 12.222656 C 26.214844 12.222656 25.5625 12.289062 24.921875 12.394531 C 24.601562 11.5625 24.441406 10.6875 24.441406 9.777344 C 24.441406 5.734375 27.730469 2.445312 31.773438 2.445312 C 33.601562 2.445312 35.316406 3.113281 36.664062 4.324219 L 36.664062 44.5625 C 35.316406 45.769531 33.601562 46.441406 31.773438 46.441406 C 27.730469 46.441406 24.441406 43.152344 24.441406 39.105469 C 24.441406 38.210938 24.605469 37.320312 24.921875 36.492188 C 25.5625 36.59375 26.214844 36.664062 26.886719 36.664062 Z M 19.554688 43.996094 L 23.320312 43.996094 C 25.015625 46.914062 28.164062 48.882812 31.773438 48.882812 C 33.523438 48.882812 35.191406 48.421875 36.664062 47.566406 L 36.664062 67.21875 C 35.25 66.425781 33.652344 65.992188 31.984375 65.992188 L 19.554688 65.992188 Z M 58.660156 65.992188 L 58.660156 46.441406 L 61.105469 46.441406 L 61.105469 70.882812 L 42.269531 70.882812 L 41.195312 71.957031 C 40.320312 72.828125 39.117188 73.328125 37.886719 73.328125 C 36.652344 73.328125 35.449219 72.828125 34.578125 71.957031 L 33.503906 70.882812 L 14.664062 70.882812 L 14.664062 46.441406 L 17.109375 46.441406 L 17.109375 65.992188 C 17.109375 67.339844 18.207031 68.4375 19.554688 68.4375 L 31.984375 68.4375 C 33.886719 68.4375 35.675781 69.179688 37.019531 70.523438 L 37.886719 71.390625 L 38.75 70.523438 C 40.09375 69.179688 41.882812 68.4375 43.785156 68.4375 L 56.214844 68.4375 C 57.566406 68.4375 58.660156 67.339844 58.660156 65.992188 Z M 56.214844 43.996094 L 56.214844 65.992188 L 43.785156 65.992188 C 42.117188 65.992188 40.519531 66.425781 39.105469 67.222656 L 39.105469 47.566406 C 40.578125 48.421875 42.246094 48.882812 43.996094 48.882812 C 47.605469 48.882812 50.757812 46.914062 52.449219 43.996094 Z M 48.882812 34.21875 L 46.441406 34.21875 L 46.441406 36.664062 L 48.882812 36.664062 C 49.554688 36.664062 50.207031 36.59375 50.847656 36.492188 C 51.167969 37.320312 51.328125 38.195312 51.328125 39.105469 C 51.328125 43.152344 48.039062 46.441406 43.996094 46.441406 C 42.167969 46.441406 40.453125 45.769531 39.105469 44.5625 L 39.105469 4.3125 C 40.453125 3.105469 42.171875 2.445312 43.996094 2.445312 C 48.039062 2.445312 51.328125 5.734375 51.328125 9.777344 C 51.328125 10.6875 51.167969 11.5625 50.847656 12.394531 C 50.207031 12.289062 49.554688 12.222656 48.882812 12.222656 L 48.675781 12.222656 C 46.769531 12.222656 44.980469 11.480469 43.636719 10.136719 L 41.910156 11.863281 C 42.539062 12.492188 43.246094 13.019531 44 13.441406 C 43.246094 13.867188 42.539062 14.394531 41.910156 15.023438 L 43.636719 16.75 C 44.984375 15.40625 46.769531 14.664062 48.675781 14.664062 L 48.882812 14.664062 C 54.273438 14.664062 58.660156 19.050781 58.660156 24.441406 C 58.660156 29.832031 54.273438 34.21875 48.882812 34.21875 Z M 60.859375 26.886719 C 61.019531 26.097656 61.105469 25.277344 61.105469 24.441406 C 61.105469 23.605469 61.019531 22.789062 60.859375 21.996094 L 63.550781 21.996094 L 63.550781 26.886719 Z M 73.328125 39.105469 L 65.992188 39.105469 L 65.992188 9.777344 L 73.328125 9.777344 Z M 73.328125 39.105469 " fill-opacity="1" fill-rule="nonzero"/><path fill="#d5ba2b" d="M 29.332031 30.550781 C 29.332031 27.855469 31.523438 25.664062 34.21875 25.664062 L 34.21875 23.21875 C 32.90625 23.21875 31.675781 23.570312 30.609375 24.179688 C 29.277344 22.105469 26.96875 20.777344 24.441406 20.777344 L 24.441406 23.21875 C 26.222656 23.21875 27.859375 24.203125 28.710938 25.726562 C 27.578125 27.019531 26.886719 28.703125 26.886719 30.550781 L 26.886719 31.773438 L 29.332031 31.773438 Z M 29.332031 30.550781 " fill-opacity="1" fill-rule="nonzero"/><path fill="#d5ba2b" d="M 45.160156 24.179688 C 44.09375 23.570312 42.863281 23.21875 41.550781 23.21875 L 41.550781 25.664062 C 44.246094 25.664062 46.441406 27.855469 46.441406 30.550781 L 46.441406 31.773438 L 48.882812 31.773438 L 48.882812 30.550781 C 48.882812 28.703125 48.191406 27.019531 47.058594 25.726562 C 47.914062 24.203125 49.546875 23.21875 51.328125 23.21875 L 51.328125 20.777344 C 48.804688 20.777344 46.492188 22.105469 45.160156 24.179688 Z M 45.160156 24.179688 " fill-opacity="1" fill-rule="nonzero"/><path fill="#d5ba2b" d="M 21.996094 61.105469 L 34.21875 61.105469 L 34.21875 63.550781 L 21.996094 63.550781 Z M 21.996094 61.105469 " fill-opacity="1" fill-rule="nonzero"/><path fill="#d5ba2b" d="M 21.996094 56.214844 L 34.21875 56.214844 L 34.21875 58.660156 L 21.996094 58.660156 Z M 21.996094 56.214844 " fill-opacity="1" fill-rule="nonzero"/><path fill="#d5ba2b" d="M 21.996094 51.328125 L 34.21875 51.328125 L 34.21875 53.773438 L 21.996094 53.773438 Z M 21.996094 51.328125 " fill-opacity="1" fill-rule="nonzero"/><path fill="#d5ba2b" d="M 41.550781 51.328125 L 43.996094 51.328125 L 43.996094 53.773438 L 41.550781 53.773438 Z M 41.550781 51.328125 " fill-opacity="1" fill-rule="nonzero"/><path fill="#d5ba2b" d="M 46.441406 51.328125 L 53.773438 51.328125 L 53.773438 53.773438 L 46.441406 53.773438 Z M 46.441406 51.328125 " fill-opacity="1" fill-rule="nonzero"/><path fill="#d5ba2b" d="M 41.550781 56.214844 L 53.773438 56.214844 L 53.773438 58.660156 L 41.550781 58.660156 Z M 41.550781 56.214844 " fill-opacity="1" fill-rule="nonzero"/><path fill="#d5ba2b" d="M 41.550781 61.105469 L 53.773438 61.105469 L 53.773438 63.550781 L 41.550781 63.550781 Z M 41.550781 61.105469 " fill-opacity="1" fill-rule="nonzero"/></svg>

<svg xmlns="http://www.w3.org/2000/svg" width="102" height="102" viewBox="0 0 76.5 76.5"><path fill="#d5ba2b" d="M73.328 7.332h-7.336a2.446 2.446 0 0 0-2.441 2.445v9.778h-3.473c-1.316-3-3.8-5.364-6.871-6.532a9.9 9.9 0 0 0 .566-3.246c0-5.39-4.386-9.777-9.777-9.777a9.7 9.7 0 0 0-6.11 2.152A9.7 9.7 0 0 0 31.774 0c-5.39 0-9.777 4.387-9.777 9.777 0 1.11.203 2.207.57 3.246a12.28 12.28 0 0 0-6.875 6.532h-3.468V9.777a2.45 2.45 0 0 0-2.446-2.445H2.445A2.45 2.45 0 0 0 0 9.777v29.328a2.446 2.446 0 0 0 2.445 2.446h7.332a2.446 2.446 0 0 0 2.446-2.446v-9.773h3.468a12.29 12.29 0 0 0 6.875 6.527 9.8 9.8 0 0 0-.57 3.246c0 .848.121 1.665.324 2.446h-2.765a2.45 2.45 0 0 0-2.446 2.445h-2.445a2.446 2.446 0 0 0-2.441 2.445v24.442a2.446 2.446 0 0 0 2.441 2.445h17.828l.356.356a7.17 7.17 0 0 0 5.039 2.086 7.16 7.16 0 0 0 5.035-2.086l.36-.356h17.823a2.45 2.45 0 0 0 2.446-2.445V46.44a2.45 2.45 0 0 0-2.446-2.445H58.66a2.446 2.446 0 0 0-2.445-2.445h-2.766a9.7 9.7 0 0 0 .324-2.446 9.9 9.9 0 0 0-.566-3.246 12.3 12.3 0 0 0 6.871-6.527h3.473v9.773a2.443 2.443 0 0 0 2.441 2.446h7.336a2.443 2.443 0 0 0 2.442-2.446V9.777a2.446 2.446 0 0 0-2.442-2.445M2.445 39.105V9.777h7.332v29.328Zm9.778-12.218v-4.89h2.687a12.3 12.3 0 0 0 0 4.89Zm14.664 9.777h2.445V34.22h-2.445c-5.39 0-9.778-4.387-9.778-9.778 0-5.39 4.387-9.777 9.778-9.777h.21c1.903 0 3.692.742 5.036 2.086l1.726-1.727a9.7 9.7 0 0 0-2.09-1.582 9.6 9.6 0 0 0 2.09-1.578l-1.726-1.726a7.08 7.08 0 0 1-5.035 2.086h-.211c-.672 0-1.325.066-1.965.172a7.2 7.2 0 0 1-.48-2.618c0-4.043 3.288-7.332 7.331-7.332 1.829 0 3.543.668 4.891 1.88v40.238a7.3 7.3 0 0 1-4.89 1.878c-4.044 0-7.333-3.289-7.333-7.336 0-.894.164-1.785.48-2.613a12.5 12.5 0 0 0 1.966.172m-7.332 7.332h3.765c1.696 2.918 4.844 4.887 8.453 4.887 1.75 0 3.418-.461 4.891-1.317V67.22a9.54 9.54 0 0 0-4.68-1.227h-12.43ZM58.66 65.992v-19.55h2.445v24.44H42.27l-1.075 1.075a4.72 4.72 0 0 1-3.308 1.371c-1.235 0-2.438-.5-3.309-1.371l-1.074-1.074h-18.84V46.44h2.445v19.551a2.45 2.45 0 0 0 2.446 2.445h12.43c1.902 0 3.69.743 5.035 2.086l.867.868.863-.868a7.08 7.08 0 0 1 5.035-2.085h12.43a2.446 2.446 0 0 0 2.445-2.446m-2.445-21.996v21.996h-12.43a9.5 9.5 0 0 0-4.68 1.23V47.567a9.7 9.7 0 0 0 4.891 1.317c3.61 0 6.762-1.969 8.453-4.887Zm-7.332-9.777H46.44v2.445h2.442a12.5 12.5 0 0 0 1.965-.172c.32.828.48 1.703.48 2.613 0 4.047-3.289 7.336-7.332 7.336a7.3 7.3 0 0 1-4.89-1.879V4.313a7.28 7.28 0 0 1 4.89-1.867c4.043 0 7.332 3.29 7.332 7.332 0 .91-.16 1.786-.48 2.618a12 12 0 0 0-1.965-.172h-.207a7.08 7.08 0 0 1-5.04-2.086l-1.726 1.726A9.6 9.6 0 0 0 44 13.441a9.7 9.7 0 0 0-2.09 1.582l1.727 1.727a7.09 7.09 0 0 1 5.039-2.086h.207c5.39 0 9.777 4.387 9.777 9.777 0 5.391-4.387 9.778-9.777 9.778m11.976-7.332a12.3 12.3 0 0 0 0-4.89h2.692v4.89Zm12.47 12.218h-7.337V9.777h7.336Zm0 0"/><path fill="#d5ba2b" d="M29.332 30.55a4.89 4.89 0 0 1 4.887-4.886V23.22a7.25 7.25 0 0 0-3.61.96c-1.332-2.074-3.64-3.402-6.168-3.402v2.442c1.782 0 3.418.984 4.27 2.508a7.3 7.3 0 0 0-1.824 4.824v1.222h2.445ZM45.16 24.18a7.25 7.25 0 0 0-3.61-.961v2.445a4.895 4.895 0 0 1 4.891 4.887v1.222h2.442v-1.222a7.3 7.3 0 0 0-1.824-4.824 4.92 4.92 0 0 1 4.27-2.508v-2.442c-2.524 0-4.837 1.328-6.169 3.403M21.996 61.105H34.22v2.446H21.996ZM21.996 56.215H34.22v2.445H21.996ZM21.996 51.328H34.22v2.445H21.996ZM41.55 51.328h2.446v2.445h-2.445ZM46.441 51.328h7.332v2.445h-7.332ZM41.55 56.215h12.223v2.445H41.551ZM41.55 61.105h12.223v2.446H41.551Zm0 0"/><path fill="#d5ba2b" d="M73.328 7.332h-7.336a2.446 2.446 0 0 0-2.441 2.445v9.778h-3.473c-1.316-3-3.8-5.364-6.871-6.532a9.9 9.9 0 0 0 .566-3.246c0-5.39-4.386-9.777-9.777-9.777a9.7 9.7 0 0 0-6.11 2.152A9.7 9.7 0 0 0 31.774 0c-5.39 0-9.777 4.387-9.777 9.777 0 1.11.203 2.207.57 3.246a12.28 12.28 0 0 0-6.875 6.532h-3.468V9.777a2.45 2.45 0 0 0-2.446-2.445H2.445A2.45 2.45 0 0 0 0 9.777v29.328a2.446 2.446 0 0 0 2.445 2.446h7.332a2.446 2.446 0 0 0 2.446-2.446v-9.773h3.468a12.29 12.29 0 0 0 6.875 6.527 9.8 9.8 0 0 0-.57 3.246c0 .848.121 1.665.324 2.446h-2.765a2.45 2.45 0 0 0-2.446 2.445h-2.445a2.446 2.446 0 0 0-2.441 2.445v24.442a2.446 2.446 0 0 0 2.441 2.445h17.828l.356.356a7.17 7.17 0 0 0 5.039 2.086 7.16 7.16 0 0 0 5.035-2.086l.36-.356h17.823a2.45 2.45 0 0 0 2.446-2.445V46.44a2.45 2.45 0 0 0-2.446-2.445H58.66a2.446 2.446 0 0 0-2.445-2.445h-2.766a9.7 9.7 0 0 0 .324-2.446 9.9 9.9 0 0 0-.566-3.246 12.3 12.3 0 0 0 6.871-6.527h3.473v9.773a2.443 2.443 0 0 0 2.441 2.446h7.336a2.443 2.443 0 0 0 2.442-2.446V9.777a2.446 2.446 0 0 0-2.442-2.445M2.445 39.105V9.777h7.332v29.328Zm9.778-12.218v-4.89h2.687a12.3 12.3 0 0 0 0 4.89Zm14.664 9.777h2.445V34.22h-2.445c-5.39 0-9.778-4.387-9.778-9.778 0-5.39 4.387-9.777 9.778-9.777h.21c1.903 0 3.692.742 5.036 2.086l1.726-1.727a9.7 9.7 0 0 0-2.09-1.582 9.6 9.6 0 0 0 2.09-1.578l-1.726-1.726a7.08 7.08 0 0 1-5.035 2.086h-.211c-.672 0-1.325.066-1.965.172a7.2 7.2 0 0 1-.48-2.618c0-4.043 3.288-7.332 7.331-7.332 1.829 0 3.543.668 4.891 1.88v40.238a7.3 7.3 0 0 1-4.89 1.878c-4.044 0-7.333-3.289-7.333-7.336 0-.894.164-1.785.48-2.613a12.5 12.5 0 0 0 1.966.172m-7.332 7.332h3.765c1.696 2.918 4.844 4.887 8.453 4.887 1.75 0 3.418-.461 4.891-1.317V67.22a9.54 9.54 0 0 0-4.68-1.227h-12.43ZM58.66 65.992v-19.55h2.445v24.44H42.27l-1.075 1.075a4.72 4.72 0 0 1-3.308 1.371c-1.235 0-2.438-.5-3.309-1.371l-1.074-1.074h-18.84V46.44h2.445v19.551a2.45 2.45 0 0 0 2.446 2.445h12.43c1.902 0 3.69.743 5.035 2.086l.867.868.863-.868a7.08 7.08 0 0 1 5.035-2.085h12.43a2.446 2.446 0 0 0 2.445-2.446m-2.445-21.996v21.996h-12.43a9.5 9.5 0 0 0-4.68 1.23V47.567a9.7 9.7 0 0 0 4.891 1.317c3.61 0 6.762-1.969 8.453-4.887Zm-7.332-9.777H46.44v2.445h2.442a12.5 12.5 0 0 0 1.965-.172c.32.828.48 1.703.48 2.613 0 4.047-3.289 7.336-7.332 7.336a7.3 7.3 0 0 1-4.89-1.879V4.313a7.28 7.28 0 0 1 4.89-1.867c4.043 0 7.332 3.29 7.332 7.332 0 .91-.16 1.786-.48 2.618a12 12 0 0 0-1.965-.172h-.207a7.08 7.08 0 0 1-5.04-2.086l-1.726 1.726A9.6 9.6 0 0 0 44 13.441a9.7 9.7 0 0 0-2.09 1.582l1.727 1.727a7.09 7.09 0 0 1 5.039-2.086h.207c5.39 0 9.777 4.387 9.777 9.777 0 5.391-4.387 9.778-9.777 9.778m11.976-7.332a12.3 12.3 0 0 0 0-4.89h2.692v4.89Zm12.47 12.218h-7.337V9.777h7.336Zm0 0"/><path fill="#d5ba2b" d="M29.332 30.55a4.89 4.89 0 0 1 4.887-4.886V23.22a7.25 7.25 0 0 0-3.61.96c-1.332-2.074-3.64-3.402-6.168-3.402v2.442c1.782 0 3.418.984 4.27 2.508a7.3 7.3 0 0 0-1.824 4.824v1.222h2.445ZM45.16 24.18a7.25 7.25 0 0 0-3.61-.961v2.445a4.895 4.895 0 0 1 4.891 4.887v1.222h2.442v-1.222a7.3 7.3 0 0 0-1.824-4.824 4.92 4.92 0 0 1 4.27-2.508v-2.442c-2.524 0-4.837 1.328-6.169 3.403M21.996 61.105H34.22v2.446H21.996ZM21.996 56.215H34.22v2.445H21.996ZM21.996 51.328H34.22v2.445H21.996ZM41.55 51.328h2.446v2.445h-2.445ZM46.441 51.328h7.332v2.445h-7.332ZM41.55 56.215h12.223v2.445H41.551ZM41.55 61.105h12.223v2.446H41.551Zm0 0"/></svg>
